!!!COM: Bach, Johann Sebastian
!!!CDT: 1685/3//-1750/7/28/
!!!OTL@@DE: Von Gott will ich nicht lassen
!!!AGN: 4-Part Chorale
!!!SCT: BH 191
!!!SCT: BWV 73
**harm	**root	**kern	**kern	**kern	**kern
!	!	!bass	!tenor	!alto	!soprno
*	*Iorgan	*Iorgan	*Iorgan	*Iorgan	*Iorgan
*	*	*clefF4	*clefF4	*clefG2	*clefG2
*k[f#c#g#]	*k[f#c#g#]	*k[f#c#g#]	*k[f#c#g#]	*k[f#c#g#]	*k[f#c#g#]
*f#:	*f#:	*f#:	*f#:	*f#:	*f#:
*M4/4	*M4/4	*M4/4	*M4/4	*M4/4	*M4/4
*met(c)	*met(c)	*met(c)	*met(c)	*met(c)	*met(c)
*MM60	*MM60	*MM60	*MM60	*MM60	*MM60
*>[A,A,B]	*>[A,A,B]	*>[A,A,B]	*>[A,A,B]	*>[A,A,B]	*>[A,A,B]
*>A	*>A	*>A	*>A	*>A	*>A
i	4AA	4FF#	4F#	4A	4c#
=1	=1	=1	=1	=1	=1
i	4AA	4F#	4A	4c#	4f#
Vb	4EE	4E#	4G#	4c#	4g#
i	4AA	4F#	4F#	4c#	4a
Vb/-VII	4DD	4D#	4F#	4B	4b
=2	=2	=2	=2	=2	=2
-VII	4GG	4E	4E	8B	2g#
.	.	.	.	8c#	.
Vb/V	4BB	4BB#	4D#	4d#	.
v;	4EE;	4C#;	4G#;	4c#;	4e;
III	4CC	4AA	4A	4c#	4e
=3	=3	=3	=3	=3	=3
VI	4FF	4D	4F#	4A	4f#
iv	4DD	4BB	4D	4B	4f#
V7b	2EE	4EE#	4C#	8B	4g#
.	.	.	.	8d	.
.	.	4EE#	4C#	8c#	4g#
.	.	.	.	8B	.
=4	=4	=4	=4	=4	=4
i;	2.AA;	2.FF#;	2.F#;	2.A;	2.c#;
=:|!	=:|!	=:|!	=:|!	=:|!	=:|!
*>B	*>B	*>B	*>B	*>B	*>B
i	4AA	4F#	4A	4f#	4cc#
=5	=5	=5	=5	=5	=5
iv	4DD	4D	4B	4f#	4b
iv7	4DD	4BB	4d	4f#	4a
IIIc	4CC	4E	4c#	4e	4a
-VII	4GG	4EE	4B	4e	4g#
=6	=6	=6	=6	=6	=6
III;	2.CC;	2.AA;	2.c#;	2.e;	2.a;
-VII	4GG	4E	4B	4e	4g#
!!linebreak: 2
=7	=7	=7	=7	=7	=7
IIIb	4CC	4C#	4.A	4e	4a
iiob	4BB	4BB	.	4d	4b
.	.	.	[8G#	.	.
III	4CC	4AA	8G#]	4e	4cc#
.	.	.	8E	.	.
i	4AA	4FF#	4A	8f#	4cc#
.	.	.	.	8e	.
=8	=8	=8	=8	=8	=8
V7/-VII	2DD	2BB	4A	8d#	2b
.	.	.	.	8c#	.
.	.	.	8G#	4d#	.
.	.	.	8F#	.	.
-VII;	4GG;	4EE;	4E;	4B;	4g#;
-VII	4GG	4E	4B	4e	4g#
=9	=9	=9	=9	=9	=9
IIIb	4CC	4C#	4A	4e	4a
III7	4CC	4AA	4E	4c#	4g#
VI	4FF	4D	8F#	4A	4f#
.	.	.	8G#	.	.
VI7	4FF	4C#	4A	[4d	4f#
=10	=10	=10	=10	=10	=10
iiob	4BB	4BB	4B	8d]	4g#
.	.	.	.	8c#	.
vii7/V	4DD#	4BB#	4A	4d#	4f#
v;	4EE;	4C#;	4G#;	4c#;	4e;
V7/III	4GG	4GG#	4E	4B	4d
=11	=11	=11	=11	=11	=11
III	4CC	4AA	4E	4A	4c#
ivb	4DD	4D	8F#	4B	4f#
.	.	.	8G#	.	.
ic	4AA	4C#	8A	4c#	4f#
.	.	.	16G#	.	.
.	.	.	16F#	.	.
V	4EE	4CC#	4G#	4c#	4e#
=12	=12	=12	=12	=12	=12
I;	2.AA;	2.FF#;	2.A#;	2.c#;	2.f#;
==	==	==	==	==	==
*-	*-	*-	*-	*-	*-
!!chor2scor: -l 2 -s 0.6 -o %b.pmx
!!!YEC: Copyright 2001 by Craig Stuart Sapp
!!!license: GNU General Public License (http://www.gnu.org/copyleft/gpl.html)
!!!SMA: 371 Bach Chorales, edited by Ludwig Erk, C.F. Peters
!!!PDT: 1850, 1865
!!!ONB: Harmony and Root analysis done manually by Craig Sapp
